X: 2195
T: Şu Karşıki Dağda Kar Var
C: (Anonim)
O: Turkey
F: http://compmusic.upf.edu/node/140
N: huzzam--turku--musemmen_ii--su_karsiki--hatay
N: makam= huzzam
N: form= turku
N: usul= musemmen_ii = 8/8
M: 8/8
L: 1/16
K: C _1/4B _3/4e ^3/4f 
Q: 1/4=180
%%MIDI tuningsystem comma53
g4 f2g2 g4 g2f2  | f4 {g}f2e2 d2{f}ed c2B2  | \
w:  ARANAĞME  |   | 
f7/2e/ e7/2d/ d7/2c/ c7/2B/  | 
w:   | 
B2c2 d2e2 f2g2 {a}fed2  | G4 f2g2 g4 g2f2  | \
w:   |   | 
f4 {g}f2e2 d2{f}ed c2B2  | 
w:   | 
f7/2e/ e7/2d/ d7/2c/ c7/2B/  | B6c2 B2c2 d4  | \
w:   |   | 
z4 B2c2 d4 e2d2  | f4 f2g2 f2e2 d2c2  | 
w:  Şu  kar şı ki   |  dağ *  *  da   | 
B2G2 B2c2 d4 e2d2  | f6{a}g2 f2e2 d4  | \
w:  SAZ *  kar  var  du man   |  yok   | 
g4 e2g2 (3f2f2e2 (3e2e2d2  | 
w:  ah  kar  var  du *  *  man   | 
d6de dfed cdef  | g4 f2g2 g4 g2f2  | \
w:  yok   SAZ  |  *  Be nim  sev di  | 
f4 {g}f2e2 d2{f}ed c2B2  | 
w:  ce *  ğim *  de   | 
f7/2e/ e7/2d/ d7/2c/ c7/2B/  | B2c2 d2e2 f2g2 {a}fed2  | \
w:  din  *  var  *  i *  man   |  yok    | 
G4 f2g2 g4 g2f2  | 
w:  SAZ Be nim  sev di  | 
f4 {g}f2e2 d2{f}ed c2B2  | f7/2e/ e7/2d/ d7/2c/ c7/2B/  | \
w:  ce *  ğim *  de   |  din  *  var  *  i *  man   | 
B4 f2f2 f8  | f16  | 
w:  yok  a man    |   | 
f2g2 e2d2 d2c2 B4  | B2G2 B2c2 d4 e2d2  | \
w:   |  SAZ *  Var dım  bak tım   | 
f4 f2g2 f2e2 d2c2  | 
w:  naz *  lı   | 
B2G2 B2c2 d4 e2d2  | f6{a}g2 f2e2 d4  | \
w:  *  *  yâ rim_ ev de   |  yok   | 
g4 e2g2 (3f2f2e2 (3e2e2d2  | 
w:  ah  yâ rim_ ev *  *  de   | 
d6de dfed cdef  | g4 f2g2 g4 g2f2  | \
w:  yok   SAZ  |  *  Ver  be nim  sa  | 
f4 {g}f2e2 d2{f}ed c2B2  | 
w:  zım  *  e *  fen *  *  *  dim   | 
f7/2e/ e7/2d/ d7/2c/ c7/2B/  | B2c2 d2e2 f2g2 {a}fed2  | \
w:  ben  *  gi *  der  *  ol  |  dum    | 
G4 f2g2 g4 g2f2  | 
w:  *  Sü re me dim   | 
f4 {g}f2e2 d2{f}ed c2B2  | f7/2e/ e7/2d/ d7/2c/ c7/2B/  | \
w:  lâ *  van *  ta *  *  *  yı   |  kon *  so *  la  *  koy  | 
B6B2 B2d2 f2a2  | 
w:  dum   SAZ  | 
g4 f2g2 g4 g2f2  | f4 {g}f2e2 d2{f}ed c2B2  | \
w:  ARANAĞME  |   | 
f7/2e/ e7/2d/ d7/2c/ c7/2B/  | 
w:   | 
B2c2 d2e2 f2g2 {a}fed2  | G4 f2g2 g4 g2f2  | \
w:   |   | 
f4 {g}f2e2 d2{f}ed c2B2  | 
w:   | 
f7/2e/ e7/2d/ d7/2c/ c7/2B/  | B6c2 B2c2 d4  | \
w:   |   | 
z4 B2c2 d4 e2d2  | f4 f2g2 f2e2 d2c2  | 
w:  Şu  kar şı ki   |  dağ *  *  da   | 
B2G2 B2c2 d4 e2d2  | f6{a}g2 f2e2 d4  | \
w:  SAZ *  kar  var  du man   |  yok   | 
g4 e2g2 (3f2f2e2 (3e2e2d2  | 
w:  ah  kar  var  du *  *  man   | 
d6de dfed cdef  | g4 f2g2 g4 g2f2  | \
w:  yok   SAZ  |  *  Be nim  sev di  | 
f4 {g}f2e2 d2{f}ed c2B2  | 
w:  ce *  ğim *  de   | 
f7/2e/ e7/2d/ d7/2c/ c7/2B/  | B2c2 d2e2 f2g2 {a}fed2  | \
w:  din  *  var  *  i *  man   |  yok    | 
G4 f2g2 g4 g2f2  | 
w:  SAZ Be nim  sev di  | 
f4 {g}f2e2 d2{f}ed c2B2  | f7/2e/ e7/2d/ d7/2c/ c7/2B/  | \
w:  ce *  ğim *  de   |  din  *  var  *  i *  man   | 
B4 f2f2 f8  | f16  | 
w:  yok  a man    |   | 
f2g2 e2d2 d2c2 B4  | B2G2 B2c2 d4 e2d2  | \
w:   |  SAZ *  Var dım  bak tım   | 
f4 f2g2 f2e2 d2c2  | 
w:  naz *  lı   | 
B2G2 B2c2 d4 e2d2  | f6{a}g2 f2e2 d4  | \
w:  *  *  yâ rim_ ev de   |  yok   | 
g4 e2g2 (3f2f2e2 (3e2e2d2  | 
w:  ah  yâ rim_ ev *  *  de   | 
d6de dfed cdef  | g4 f2g2 g4 g2f2  | \
w:  yok   SAZ  |  *  Ver  be nim  sa  | 
f4 {g}f2e2 d2{f}ed c2B2  | 
w:  zım  *  e *  fen *  *  *  dim   | 
f7/2e/ e7/2d/ d7/2c/ c7/2B/  | B2c2 d2e2 f2g2 {a}fed2  | \
w:  ben  *  gi *  der  *  ol  |  dum    | 
G4 f2g2 g4 g2f2  | 
w:  *  Sü re me dim   | 
f4 {g}f2e2 d2{f}ed c2B2  | f7/2e/ e7/2d/ d7/2c/ c7/2B/  | \
w:  lâ *  van *  ta *  *  *  yı   |  kon *  so *  la  *  koy  | 
B6|
w:  dum    | 


